src/assets/images/toolbox/redux.svg

<svg
  width="34"
  height="32"
  viewBox="0 0 34 32"
  fill="transparent"
  xmlns="http://www.w3.org/2000/svg">
  <path
    fill="#764ABC"
    d="M23.5584 22.3485C24.8131 22.2198 25.765 21.1475 25.7217 19.8605C25.6785 18.5737 24.5967 17.5442 23.2988 17.5442H23.2123C21.8709 17.5871 20.8326 18.7024 20.8759 20.0321C20.9192 20.6756 21.1787 21.2332 21.5681 21.6192C20.097 24.4933 17.8472 26.5951 14.4724 28.3538C12.1793 29.5549 9.7997 29.9839 7.4201 29.6837C5.47307 29.4263 3.95874 28.5684 3.00674 27.1527C1.6223 25.0509 1.49255 22.7774 2.66076 20.504C3.48287 18.8739 4.78072 17.6729 5.60283 17.0723C5.42977 16.5147 5.17012 15.571 5.04036 14.8848C-1.2333 19.3888 -0.584244 25.4799 1.31949 28.3538C2.74722 30.4987 5.64612 31.8284 8.84783 31.8284C9.71311 31.8284 10.5784 31.7426 11.4438 31.5282C16.9819 30.4558 21.1788 27.1957 23.5584 22.3485ZM31.1733 17.0295C27.885 13.2118 23.0392 11.11 17.5011 11.11H16.8089C16.4195 10.3378 15.5974 9.82302 14.6888 9.82302H14.6022C13.2611 9.86594 12.2227 10.9812 12.2659 12.311C12.3092 13.5978 13.3908 14.6274 14.6888 14.6274H14.7753C15.7271 14.5844 16.5492 13.9839 16.8953 13.1689H17.6742C20.9625 13.1689 24.0776 14.1125 26.89 15.9571C29.0533 17.3726 30.6109 19.2172 31.4762 21.4477C32.2117 23.2493 32.1684 25.008 31.3896 26.5094C30.1782 28.7828 28.1447 30.0268 25.4621 30.0268C23.7315 30.0268 22.0874 29.512 21.222 29.1259C20.7461 29.5549 19.8807 30.2412 19.2749 30.6703C21.1355 31.5281 23.0392 32 24.8564 32C29.01 32 32.0819 29.7265 33.2501 27.4531C34.5048 24.9651 34.4182 20.6756 31.1733 17.0295ZM9.19394 23.0776C9.23724 24.3645 10.3189 25.3939 11.6168 25.3939H11.7034C13.0447 25.3511 14.083 24.2358 14.0397 22.906C13.9966 21.6191 12.9148 20.5897 11.6168 20.5897H11.5304C11.4438 20.5897 11.3139 20.5897 11.2276 20.6325C9.45359 17.7156 8.71807 14.5415 8.97772 11.1098C9.15064 8.53609 10.0161 6.30549 11.5304 4.46094C12.7851 2.8738 15.208 2.1017 16.8522 2.05891C21.4383 1.97306 23.3852 7.63521 23.5151 9.90874C24.0776 10.0374 25.0294 10.3377 25.6785 10.5522C25.1592 3.60325 20.8326 0 16.6791 0C12.7851 0 9.19394 2.78822 7.76608 6.90616C5.77588 12.3968 7.07386 17.6729 9.49675 21.8337C9.28054 22.1339 9.15065 22.6057 9.19394 23.0776Z"
  />
</svg>

<svg xmlns="http://www.w3.org/2000/svg" width="34" height="32" fill="transparent" xmlns:v="https://vecta.io/nano">
  <path fill="#764abc"
    d="M23.558 22.349a2.41 2.41 0 0 0 2.163-2.488c-.043-1.287-1.125-2.316-2.423-2.316h-.087a2.41 2.41 0 0 0-2.336 2.488c.043.643.303 1.201.692 1.587-1.471 2.874-3.721 4.976-7.096 6.735-2.293 1.201-4.673 1.63-7.052 1.33-1.947-.257-3.461-1.115-4.413-2.531-1.384-2.102-1.514-4.375-.346-6.649.822-1.63 2.12-2.831 2.942-3.432-.173-.558-.433-1.501-.562-2.187-6.274 4.504-5.625 10.595-3.721 13.469 1.428 2.145 4.327 3.475 7.528 3.475.865 0 1.731-.086 2.596-.3 5.538-1.072 9.735-4.332 12.115-9.18zm7.615-5.319c-3.288-3.818-8.134-5.919-13.672-5.919h-.692a2.38 2.38 0 0 0-2.12-1.287h-.087a2.41 2.41 0 0 0-2.336 2.488c.043 1.287 1.125 2.316 2.423 2.316h.086c.952-.043 1.774-.643 2.12-1.458h.779c3.288 0 6.403.944 9.216 2.788 2.163 1.415 3.721 3.26 4.586 5.491.736 1.802.692 3.56-.087 5.062-1.211 2.273-3.245 3.517-5.928 3.517a11.15 11.15 0 0 1-4.24-.901 25.52 25.52 0 0 1-1.947 1.544c1.861.858 3.764 1.33 5.582 1.33 4.154 0 7.225-2.273 8.394-4.547 1.255-2.488 1.168-6.777-2.077-10.424zM9.194 23.078c.043 1.287 1.125 2.316 2.423 2.316h.087a2.41 2.41 0 0 0 2.336-2.488c-.043-1.287-1.125-2.316-2.423-2.316h-.086c-.087 0-.216 0-.303.043-1.774-2.917-2.51-6.091-2.25-9.523.173-2.574 1.038-4.804 2.553-6.649 1.255-1.587 3.678-2.359 5.322-2.402 4.586-.086 6.533 5.576 6.663 7.85.563.129 1.514.429 2.163.643C25.159 3.603 20.833 0 16.679 0c-3.894 0-7.485 2.788-8.913 6.906-1.99 5.491-.692 10.767 1.731 14.928-.216.3-.346.772-.303 1.244z" />
</svg>
